X:1
T:Title
%%score { 1 | 2 }
L:1/8
M:6/8
K:Bb
V:1 treble nm="Grand Piano"
V:2 bass 
V:1
 z3 z2[Q:1/4=100] [DF] | [DF]2 D [DB]2 [DF] | A2 E E2 E | E2 C A2 G |[M:5/8] [DF]-[DF]- [DF]3 | %5
[M:1/8] [DF] |[M:3/4] [DF]2 D [DB]2 [DA] | c2 B A2 G | F2 B A2 F | [DB]6 | %10
 [DF]2 [DFB] [DFB]2 [B,FB] | [B,EG]2 [Gc] [Gc]2 [Gc] | A2 G F2 e | d2 [DFB] [B,DF]3 | %14
 [B,DF]2 [DFB] [DFB]2 [B,FB] | [B,EG]2 [Gc] [Gc]2 [Gc] | F2 e d2 c |[M:5/8] [DB]-[DB]- [DB]3 |] %18
V:2
 z3 z2 [B,,B,] | [B,,B,]2 [B,,B,] [B,,F,]2 [B,,B,] | [F,CE]2 [F,A,C] [F,A,C]2 [F,A,C] | %3
 [F,A,C]2 [F,A,] [F,CF]2 [F,CE] |[M:5/8] [B,,B,]-[B,,B,]- [B,,B,]3 |[M:1/8] [B,,B,] | %6
[M:3/4] [B,,B,]2 [B,,F,] [B,,F,]2 [B,,B,] | [E,G,E]2 [E,G,E] [=E,B,_D]2 [E,B,D] | %8
 [F,B,D]2 [F,B,D] [F,CE]2 [F,CE] | [B,,B,]6 | [B,,B,]2 B,, B,,2 D, | E,2 [E,E] [E,E]2 [E,E] | %12
 [F,CF]2 [F,B,E] [F,A,E]2[K:treble] [F,A,F] | [B,F]2[K:bass] B,, B,,3 | B,,2 B,, B,,2 D, | %15
 E,2 [E,E] [E,E]2 [E,E] | [F,B,D]2 [F,CF] [F,B,F]2 [F,A,E] |[M:5/8] [B,,B,]-[B,,B,]- [B,,B,]3 |] %18

